Newaita-dark/actions/22/zoom-fit-drawing.svg

<svg height="22" viewBox="0 0 22 22" width="22" xmlns="http://www.w3.org/2000/svg"><g fill="#e0e0e0"><path d="m5.914062 5.628906h5.457032c.25 0 .453125.203125.453125.457032v.90625c0 .253906-.203125.457031-.453125.457031h-5.457032c-.253906 0-.457031-.203125-.457031-.457031v-.90625c0-.253907.203125-.457032.457031-.457032zm0 0"/><path d="m7.277344 6.085938v5.457031c0 .25-.203125.453125-.457032.453125h-.90625c-.253906 0-.457031-.203125-.457031-.453125v-5.457031c0-.253907.203125-.457032.457031-.457032h.90625c.253907 0 .457032.203125.457032.457032zm0 0"/><path d="m10.460938 10.175781h5.457031c.25 0 .453125.207031.453125.457031v.910157c0 .25-.203125.453125-.453125.453125h-5.457031c-.25 0-.457032-.203125-.457032-.453125v-.910157c0-.25.207032-.457031.457032-.457031zm0 0"/><path d="m10.460938 14.726562h5.457031c.25 0 .453125.203126.453125.453126v.910156c0 .25-.203125.453125-.453125.453125h-5.457031c-.25 0-.457032-.203125-.457032-.453125v-.910156c0-.25.207032-.453126.457032-.453126zm0 0"/><path d="m10.003906 16.089844v-5.457032c0-.25.207032-.457031.457032-.457031h.910156c.25 0 .453125.207031.453125.457031v5.457032c0 .25-.203125.453125-.453125.453125h-.910156c-.25 0-.457032-.203125-.457032-.453125zm0 0"/><path d="m14.554688 16.089844v-5.457032c0-.25.203124-.457031.453124-.457031h.910157c.25 0 .453125.207031.453125.457031v5.457032c0 .25-.203125.453125-.453125.453125h-.910157c-.25 0-.453124-.203125-.453124-.453125zm0 0"/><path d="m11.824219 6.539062v2.273438h-1.820313v-2.273438zm0 0"/><path d="m8.640625 11.996094h-2.273437v-1.820313h2.273437zm0 0"/><path d="m3.636719 1.992188c-1.007813 0-1.816407.808593-1.816407 1.816406v3.640625h1.816407v-2.730469c0-.503906.40625-.910156.910156-.910156h2.730469v-1.816406zm10.917969 0v1.816406h2.726562c.503906 0 .910156.40625.910156.910156v2.730469h1.820313v-3.640625c0-1.007813-.8125-1.816406-1.820313-1.816406zm-12.734376 12.734374v3.636719c0 1.007813.808594 1.820313 1.816407 1.820313h3.640625v-1.820313h-2.730469c-.503906 0-.910156-.40625-.910156-.910156v-2.726563zm16.371094 0v2.726563c0 .503906-.40625.910156-.910156.910156h-2.726562v1.820313h3.636718c1.007813 0 1.820313-.8125 1.820313-1.820313v-3.636719zm0 0"/></g></svg>

<?xml version="1.0" encoding="UTF-8"?>
<svg xmlns="http://www.w3.org/2000/svg" xmlns:xlink="http://www.w3.org/1999/xlink" width="22px" height="22px" viewBox="0 0 22 22" version="1.1">
<g id="surface1">
<path style=" stroke:none;fill-rule:nonzero;fill:rgb(87.843138%,87.843138%,87.843138%);fill-opacity:1;" d="M 5.914062 5.628906 L 11.371094 5.628906 C 11.621094 5.628906 11.824219 5.832031 11.824219 6.085938 L 11.824219 6.992188 C 11.824219 7.246094 11.621094 7.449219 11.371094 7.449219 L 5.914062 7.449219 C 5.660156 7.449219 5.457031 7.246094 5.457031 6.992188 L 5.457031 6.085938 C 5.457031 5.832031 5.660156 5.628906 5.914062 5.628906 Z M 5.914062 5.628906 "/>
<path style=" stroke:none;fill-rule:nonzero;fill:rgb(87.843138%,87.843138%,87.843138%);fill-opacity:1;" d="M 7.277344 6.085938 L 7.277344 11.542969 C 7.277344 11.792969 7.074219 11.996094 6.820312 11.996094 L 5.914062 11.996094 C 5.660156 11.996094 5.457031 11.792969 5.457031 11.542969 L 5.457031 6.085938 C 5.457031 5.832031 5.660156 5.628906 5.914062 5.628906 L 6.820312 5.628906 C 7.074219 5.628906 7.277344 5.832031 7.277344 6.085938 Z M 7.277344 6.085938 "/>
<path style=" stroke:none;fill-rule:nonzero;fill:rgb(87.843138%,87.843138%,87.843138%);fill-opacity:1;" d="M 10.460938 10.175781 L 15.917969 10.175781 C 16.167969 10.175781 16.371094 10.382812 16.371094 10.632812 L 16.371094 11.542969 C 16.371094 11.792969 16.167969 11.996094 15.917969 11.996094 L 10.460938 11.996094 C 10.210938 11.996094 10.003906 11.792969 10.003906 11.542969 L 10.003906 10.632812 C 10.003906 10.382812 10.210938 10.175781 10.460938 10.175781 Z M 10.460938 10.175781 "/>
<path style=" stroke:none;fill-rule:nonzero;fill:rgb(87.843138%,87.843138%,87.843138%);fill-opacity:1;" d="M 10.460938 14.726562 L 15.917969 14.726562 C 16.167969 14.726562 16.371094 14.929688 16.371094 15.179688 L 16.371094 16.089844 C 16.371094 16.339844 16.167969 16.542969 15.917969 16.542969 L 10.460938 16.542969 C 10.210938 16.542969 10.003906 16.339844 10.003906 16.089844 L 10.003906 15.179688 C 10.003906 14.929688 10.210938 14.726562 10.460938 14.726562 Z M 10.460938 14.726562 "/>
<path style=" stroke:none;fill-rule:nonzero;fill:rgb(87.843138%,87.843138%,87.843138%);fill-opacity:1;" d="M 10.003906 16.089844 L 10.003906 10.632812 C 10.003906 10.382812 10.210938 10.175781 10.460938 10.175781 L 11.371094 10.175781 C 11.621094 10.175781 11.824219 10.382812 11.824219 10.632812 L 11.824219 16.089844 C 11.824219 16.339844 11.621094 16.542969 11.371094 16.542969 L 10.460938 16.542969 C 10.210938 16.542969 10.003906 16.339844 10.003906 16.089844 Z M 10.003906 16.089844 "/>
<path style=" stroke:none;fill-rule:nonzero;fill:rgb(87.843138%,87.843138%,87.843138%);fill-opacity:1;" d="M 14.554688 16.089844 L 14.554688 10.632812 C 14.554688 10.382812 14.757812 10.175781 15.007812 10.175781 L 15.917969 10.175781 C 16.167969 10.175781 16.371094 10.382812 16.371094 10.632812 L 16.371094 16.089844 C 16.371094 16.339844 16.167969 16.542969 15.917969 16.542969 L 15.007812 16.542969 C 14.757812 16.542969 14.554688 16.339844 14.554688 16.089844 Z M 14.554688 16.089844 "/>
<path style=" stroke:none;fill-rule:nonzero;fill:rgb(87.843138%,87.843138%,87.843138%);fill-opacity:1;" d="M 11.824219 6.539062 L 11.824219 8.8125 L 10.003906 8.8125 L 10.003906 6.539062 Z M 11.824219 6.539062 "/>
<path style=" stroke:none;fill-rule:nonzero;fill:rgb(87.843138%,87.843138%,87.843138%);fill-opacity:1;" d="M 8.640625 11.996094 L 6.367188 11.996094 L 6.367188 10.175781 L 8.640625 10.175781 Z M 8.640625 11.996094 "/>
<path style=" stroke:none;fill-rule:nonzero;fill:rgb(87.843138%,87.843138%,87.843138%);fill-opacity:1;" d="M 3.636719 1.992188 C 2.628906 1.992188 1.820312 2.800781 1.820312 3.808594 L 1.820312 7.449219 L 3.636719 7.449219 L 3.636719 4.71875 C 3.636719 4.214844 4.042969 3.808594 4.546875 3.808594 L 7.277344 3.808594 L 7.277344 1.992188 Z M 14.554688 1.992188 L 14.554688 3.808594 L 17.28125 3.808594 C 17.785156 3.808594 18.191406 4.214844 18.191406 4.71875 L 18.191406 7.449219 L 20.011719 7.449219 L 20.011719 3.808594 C 20.011719 2.800781 19.199219 1.992188 18.191406 1.992188 Z M 1.820312 14.726562 L 1.820312 18.363281 C 1.820312 19.371094 2.628906 20.183594 3.636719 20.183594 L 7.277344 20.183594 L 7.277344 18.363281 L 4.546875 18.363281 C 4.042969 18.363281 3.636719 17.957031 3.636719 17.453125 L 3.636719 14.726562 Z M 18.191406 14.726562 L 18.191406 17.453125 C 18.191406 17.957031 17.785156 18.363281 17.28125 18.363281 L 14.554688 18.363281 L 14.554688 20.183594 L 18.191406 20.183594 C 19.199219 20.183594 20.011719 19.371094 20.011719 18.363281 L 20.011719 14.726562 Z M 18.191406 14.726562 "/>
</g>
</svg>
